svg/fluentui-system-icons/ic_fluent_filmstrip_play_32_regular.svg

<svg width="32" height="32" viewBox="0 0 32 32" fill="none" xmlns="http://www.w3.org/2000/svg">
<path d="M6.5 4C4.01472 4 2 6.01472 2 8.5V23.5C2 25.9853 4.01472 28 6.5 28H25.5C27.9853 28 30 25.9853 30 23.5V8.5C30 6.01472 27.9853 4 25.5 4H6.5ZM4 8.5C4 7.11929 5.11929 6 6.5 6H25.5C26.8807 6 28 7.11929 28 8.5V23.5C28 24.8807 26.8807 26 25.5 26H6.5C5.11929 26 4 24.8807 4 23.5V8.5ZM25 8C24.4477 8 24 8.44772 24 9V11C24 11.5523 24.4477 12 25 12C25.5523 12 26 11.5523 26 11V9C26 8.44772 25.5523 8 25 8ZM24 15C24 14.4477 24.4477 14 25 14C25.5523 14 26 14.4477 26 15V17C26 17.5523 25.5523 18 25 18C24.4477 18 24 17.5523 24 17V15ZM25 20C24.4477 20 24 20.4477 24 21V23C24 23.5523 24.4477 24 25 24C25.5523 24 26 23.5523 26 23V21C26 20.4477 25.5523 20 25 20ZM6 9C6 8.44772 6.44772 8 7 8C7.55228 8 8 8.44772 8 9V11C8 11.5523 7.55228 12 7 12C6.44772 12 6 11.5523 6 11V9ZM7 14C6.44772 14 6 14.4477 6 15V17C6 17.5523 6.44772 18 7 18C7.55228 18 8 17.5523 8 17V15C8 14.4477 7.55228 14 7 14ZM6 21C6 20.4477 6.44772 20 7 20C7.55228 20 8 20.4477 8 21V23C8 23.5523 7.55228 24 7 24C6.44772 24 6 23.5523 6 23V21ZM13 13.0492C13 12.2403 13.8778 11.7366 14.5762 12.1447L20.1752 15.417C20.7665 15.7626 20.7665 16.6172 20.1752 16.9628L14.5762 20.2351C13.8778 20.6432 13 20.1395 13 19.3306V13.0492Z" fill="#212121"/>
</svg>

<svg xmlns="http://www.w3.org/2000/svg" width="32" height="32"><path d="M6.5 4A4.5 4.5 0 0 0 2 8.5v15A4.5 4.5 0 0 0 6.5 28h19a4.5 4.5 0 0 0 4.5-4.5v-15A4.5 4.5 0 0 0 25.5 4h-19ZM4 8.5A2.5 2.5 0 0 1 6.5 6h19A2.5 2.5 0 0 1 28 8.5v15a2.5 2.5 0 0 1-2.5 2.5h-19A2.5 2.5 0 0 1 4 23.5v-15ZM25 8a1 1 0 0 0-1 1v2a1 1 0 1 0 2 0V9a1 1 0 0 0-1-1Zm-1 7a1 1 0 1 1 2 0v2a1 1 0 1 1-2 0v-2Zm1 5a1 1 0 0 0-1 1v2a1 1 0 1 0 2 0v-2a1 1 0 0 0-1-1ZM6 9a1 1 0 0 1 2 0v2a1 1 0 1 1-2 0V9Zm1 5a1 1 0 0 0-1 1v2a1 1 0 1 0 2 0v-2a1 1 0 0 0-1-1Zm-1 7a1 1 0 1 1 2 0v2a1 1 0 1 1-2 0v-2Zm7-7.95c0-.81.878-1.313 1.576-.905l5.6 3.272a.895.895 0 0 1 0 1.546l-5.6 3.272A1.048 1.048 0 0 1 13 19.331v-6.282Z"/></svg>
